findly-builder/apps/searchassist/src/assets/icons/content/View.svg

<svg width="50" height="50" viewBox="0 0 50 50" fill="none" xmlns="http://www.w3.org/2000/svg">
<g clip-path="url(#clip0_70_7543)">
<path d="M41.6668 46.875H8.3335V3.125H31.2502L41.6668 13.5417V46.875Z" fill="#90CAF9"/>
<path d="M42 14H31V3L42 14Z" fill="#E1F5FE"/>
<path d="M39.0859 41.167L41.1674 39.0854L49.9991 47.9167L47.9176 49.9983L39.0859 41.167Z" fill="#616161"/>
<path d="M43.7502 32.2913C43.7502 38.6184 38.62 43.7497 32.2918 43.7497C25.9637 43.7497 20.8335 38.6184 20.8335 32.2913C20.8335 25.9643 25.9637 20.833 32.2918 20.833C38.62 20.833 43.7502 25.9643 43.7502 32.2913Z" fill="#616161"/>
<path d="M41.6665 32.292C41.6665 37.4701 37.4696 41.667 32.2915 41.667C27.1123 41.667 22.9165 37.4701 22.9165 32.292C22.9165 27.1139 27.1123 22.917 32.2915 22.917C37.4696 22.917 41.6665 27.1139 41.6665 32.292Z" fill="#90CAF9"/>
<path d="M41.5215 43.6016L43.6028 41.5183L50.003 47.9122L47.9217 49.9955L41.5215 43.6016Z" fill="#37474F"/>
</g>
<defs>
<clipPath id="clip0_70_7543">
<rect width="50" height="50" fill="white"/>
</clipPath>
</defs>
</svg>

<svg width="50" height="50" fill="none" xmlns="http://www.w3.org/2000/svg"><g clip-path="url(#a)"><path d="M41.667 46.875H8.333V3.125H31.25l10.417 10.417v33.333Z" fill="#90CAF9"/><path d="M42 14H31V3l11 11Z" fill="#E1F5FE"/><path d="m39.086 41.167 2.081-2.082L50 47.917l-2.081 2.081-8.832-8.831Z" fill="#616161"/><path d="M43.75 32.291c0 6.327-5.13 11.459-11.458 11.459s-11.459-5.132-11.459-11.46 5.13-11.458 11.459-11.458c6.328 0 11.458 5.131 11.458 11.458Z" fill="#616161"/><path d="M41.666 32.292a9.374 9.374 0 0 1-9.374 9.375 9.374 9.374 0 0 1-9.376-9.375 9.374 9.374 0 0 1 9.375-9.375 9.374 9.374 0 0 1 9.376 9.375Z" fill="#90CAF9"/><path d="m41.522 43.602 2.08-2.084 6.401 6.394-2.081 2.084-6.4-6.394Z" fill="#37474F"/></g><defs><clipPath id="a"><path fill="#fff" d="M0 0h50v50H0z"/></clipPath></defs></svg>
